5-network/05-fetch-crossorigin/xhr-preflight.svg

<svg xmlns="http://www.w3.org/2000/svg" width="620" height="633" viewBox="0 0 620 633"><defs><style>@import url(https://fonts.googleapis.com/css?family=Open+Sans:bold,italic,bolditalic%7CPT+Mono);@font-face{font-family:&apos;PT Mono&apos;;font-weight:700;font-style:normal;src:local(&apos;PT MonoBold&apos;),url(/font/PTMonoBold.woff2) format(&apos;woff2&apos;),url(/font/PTMonoBold.woff) format(&apos;woff&apos;),url(/font/PTMonoBold.ttf) format(&apos;truetype&apos;)}</style></defs><g id="network" fill="none" fill-rule="evenodd" stroke="none" stroke-width="1"><g id="xhr-preflight.svg"><path id="Rectangle-227" fill="#FBF2EC" stroke="#DBAF88" stroke-width="2" d="M1 16h128v64H1z"/><text id="JavaScript" fill="#AF6E24" font-family="OpenSans-Regular, Open Sans" font-size="14" font-weight="normal"><tspan x="33" y="50">JavaScript</tspan></text><path id="Rectangle-228" fill="#FBF2EC" stroke="#DBAF88" stroke-width="2" d="M240 16h128v64H240z"/><text id="Browser" fill="#AF6E24" font-family="OpenSans-Regular, Open Sans" font-size="14" font-weight="normal"><tspan x="278" y="48">Browser</tspan></text><path id="Rectangle-229" fill="#FBF2EC" stroke="#DBAF88" stroke-width="2" d="M491 16h128v64H491z"/><text id="Server" fill="#AF6E24" font-family="OpenSans-Regular, Open Sans" font-size="14" font-weight="normal"><tspan x="534" y="50">Server</tspan></text><path id="Line" stroke="#7E7C7B" stroke-linecap="square" d="M66 82v520M305 82v520M556 82v520"/><path id="Line" fill="#C06334" fill-rule="nonzero" d="M291 133l14 7-14 7-.001-6H67v-2h223.999l.001-6z"/><text id="fetch()" fill="#AF6E24" font-family="OpenSans-Regular, Open Sans" font-size="14" font-weight="normal"><tspan x="166" y="131">fetch()</tspan></text><text id="OPTIONS" fill="#AF6E24" font-family="OpenSans-Regular, Open Sans" font-size="14" font-weight="normal"><tspan x="400" y="173">OPTIONS</tspan></text><text id="Origin-Access-Contro" fill="#AF6E24" font-family="OpenSans-Regular, Open Sans" font-size="14" font-weight="normal"><tspan x="406.721" y="198">Origin</tspan> <tspan x="321.866" y="216">Access-Control-Request-Method</tspan> <tspan x="320" y="234">Access-Control-Request-Headers</tspan></text><path id="Line" fill="#C06334" fill-rule="nonzero" d="M319 285.5v6h237v2H319v6l-14-7 14-7z"/><text id="200-OK" fill="#AF6E24" font-family="OpenSans-Regular, Open Sans" font-size="14" font-weight="normal"><tspan x="407" y="285">200 OK</tspan></text><path id="Line-4" fill="#C06334" fill-rule="nonzero" d="M542 173l14 7-14 7-.001-6H305v-2h236.999l.001-6z"/><path id="Line-2" fill="#C06334" fill-rule="nonzero" d="M319 495v6h237v2H319v6l-14-7 14-7z"/><path id="Line-3" fill="#C06334" fill-rule="nonzero" d="M90.5 544.5v8h214v3h-214v8l-19-9.5 19-9.5z"/><text id="Access-Control-Allow" fill="#AF6E24" font-family="OpenSans-Regular, Open Sans" font-size="14" font-weight="normal"><tspan x="336" y="522">Access-Control-Allow-Origin</tspan></text><text id="Main-HTTP-response" fill="#AF6E24" font-family="OpenSans-Regular, Open Sans" font-size="14" font-weight="normal"><tspan x="355" y="495">Main HTTP-response</tspan></text><text id="otherwise-error" fill="#AF6E24" font-family="OpenSans-Regular, Open Sans" font-size="14" font-weight="normal"><tspan x="130" y="570">otherwise error</tspan></text><text id="if-allowed:-success," fill="#AF6E24" font-family="OpenSans-Regular, Open Sans" font-size="14" font-weight="normal"><tspan x="115.5" y="545">if allowed: success,</tspan></text><path id="Line-5" fill="#C06334" fill-rule="nonzero" d="M542 429l14 7-14 7-.001-6H304v-2h237.999l.001-6z"/><text id="Origin" fill="#AF6E24" font-family="OpenSans-Regular, Open Sans" font-size="14" font-weight="normal"><tspan x="405" y="454">Origin</tspan></text><text id="Main-HTTP-request" fill="#AF6E24" font-family="OpenSans-Regular, Open Sans" font-size="14" font-weight="normal"><tspan x="360" y="429">Main HTTP-request</tspan></text><text id="preflight" fill="#7E7C7B" font-family="OpenSans-Regular, Open Sans" font-size="22" font-weight="normal"><tspan x="210.145" y="186">preflight</tspan></text><text id="if-allowed" fill="#7E7C7B" font-family="OpenSans-Regular, Open Sans" font-size="22" font-weight="normal"><tspan x="198.338" y="441">if allowed</tspan></text><text id="1" fill="#181717" font-family="OpenSans-Regular, Open Sans" font-size="24" font-weight="normal"><tspan x="570.139" y="186">1</tspan></text><text id="2" fill="#181717" font-family="OpenSans-Regular, Open Sans" font-size="24" font-weight="normal"><tspan x="570.139" y="302">2</tspan></text><text id="3" fill="#181717" font-family="OpenSans-Regular, Open Sans" font-size="24" font-weight="normal"><tspan x="570.139" y="443">3</tspan></text><text id="4" fill="#181717" font-family="OpenSans-Regular, Open Sans" font-size="24" font-weight="normal"><tspan x="570.139" y="509">4</tspan></text><text id="Access-Control-Allow" fill="#AF6E24" font-family="OpenSans-Regular, Open Sans" font-size="14" font-weight="normal"> <tspan x="340.917" y="308.33">Access-Control-Allow-Origin</tspan> <tspan x="335.366" y="326.33">Access-Control-Allow-Method</tspan> <tspan x="333.5" y="344.33">Access-Control-Allow-Headers</tspan> <tspan x="352.47" y="362.33">Access-Control-Max-Age</tspan></text></g></g></svg>

<?xml version="1.0" encoding="UTF-8"?>
<svg width="620px" height="633px" viewBox="0 0 620 633" version="1.1" xmlns="http://www.w3.org/2000/svg" xmlns:xlink="http://www.w3.org/1999/xlink">
    <!-- Generator: sketchtool 61.2 (101010) - https://sketch.com -->
    <title>xhr-preflight.svg</title>
    <desc>Created with sketchtool.</desc>
    <g id="network" stroke="none" stroke-width="1" fill="none" fill-rule="evenodd">
        <g id="xhr-preflight.svg">
            <rect id="Rectangle-227" stroke="#E8C48E" stroke-width="2" fill="#FFF9EB" x="1" y="16" width="128" height="64"></rect>
            <text id="JavaScript" font-family="Helvetica" font-size="14" font-weight="normal" fill="#8A704D">
                <tspan x="33" y="49">JavaScript</tspan>
            </text>
            <rect id="Rectangle-228" stroke="#E8C48E" stroke-width="2" fill="#FFF9EB" x="240" y="16" width="128" height="64"></rect>
            <text id="Browser" font-family="Helvetica" font-size="14" font-weight="normal" fill="#8A704D">
                <tspan x="278" y="47">Browser</tspan>
            </text>
            <rect id="Rectangle-229" stroke="#E8C48E" stroke-width="2" fill="#FFF9EB" x="491" y="16" width="128" height="64"></rect>
            <text id="Server" font-family="Helvetica" font-size="14" font-weight="normal" fill="#8A704D">
                <tspan x="534" y="49">Server</tspan>
            </text>
            <line x1="66" y1="82" x2="66" y2="602" id="Line" stroke="#979797" stroke-linecap="square"></line>
            <line x1="305" y1="82" x2="305" y2="602" id="Line" stroke="#979797" stroke-linecap="square"></line>
            <line x1="556" y1="82" x2="556" y2="602" id="Line" stroke="#979797" stroke-linecap="square"></line>
            <path id="Line" d="M291,133 L305,140 L291,147 L290.999,141 L67,141 L67,139 L290.999,139 L291,133 Z" fill="#EE6B47" fill-rule="nonzero"></path>
            <text id="fetch()" font-family="Helvetica" font-size="14" font-weight="normal" fill="#8A704D">
                <tspan x="166" y="130">fetch()</tspan>
            </text>
            <text id="OPTIONS" font-family="Helvetica" font-size="14" font-weight="normal" line-spacing="18" fill="#8A704D">
                <tspan x="403.665527" y="172">OPTION</tspan>
                <tspan x="425.831055" y="190">S</tspan>
            </text>
            <text id="Origin-Access-Contro" font-family="Helvetica" font-size="14" font-weight="normal" line-spacing="18" fill="#8A704D">
                <tspan x="408.327637" y="197">Origin</tspan>
                <tspan x="325.458984" y="215">Access-Control-Request-Method</tspan>
                <tspan x="322.348633" y="233">Access-Control-Request-Headers</tspan>
            </text>
            <path id="Line" d="M319,285.5 L319,291.5 L556,291.5 L556,293.5 L319,293.5 L319,299.5 L305,292.5 L319,285.5 Z" fill="#EE6B47" fill-rule="nonzero"></path>
            <text id="200-OK" font-family="Helvetica" font-size="14" font-weight="normal" line-spacing="18" fill="#8A704D">
                <tspan x="407.262207" y="284">200 OK</tspan>
            </text>
            <path id="Line-4" d="M542,173 L556,180 L542,187 L541.999,181 L305,181 L305,179 L541.999,179 L542,173 Z" fill="#EE6B47" fill-rule="nonzero"></path>
            <path id="Line-2" d="M319,495 L319,501 L556,501 L556,503 L319,503 L319,509 L305,502 L319,495 Z" fill="#EE6B47" fill-rule="nonzero"></path>
            <path id="Line-3" d="M90.5,544.5 L90.5,552.5 L304.5,552.5 L304.5,555.5 L90.5,555.5 L90.5,563.5 L71.5,554 L90.5,544.5 Z" fill="#EE6B47" fill-rule="nonzero"></path>
            <text id="Access-Control-Allow" font-family="Helvetica" font-size="14" font-weight="normal" line-spacing="18" fill="#8A704D">
                <tspan x="338.979492" y="521">Access-Control-Allow-Origin</tspan>
            </text>
            <text id="Main-HTTP-response" font-family="Helvetica" font-size="14" font-weight="normal" line-spacing="18" fill="#8A704D">
                <tspan x="356.479492" y="494">Main HTTP-response</tspan>
            </text>
            <text id="otherwise-error" font-family="Helvetica" font-size="14" font-weight="normal" line-spacing="18" fill="#8A704D">
                <tspan x="134.317383" y="569">otherwise error</tspan>
            </text>
            <text id="if-allowed:-success," font-family="Helvetica" font-size="14" font-weight="normal" line-spacing="18" fill="#8A704D">
                <tspan x="117.196777" y="544">if allowed: success,</tspan>
            </text>
            <path id="Line-5" d="M542,429 L556,436 L542,443 L541.999,437 L304,437 L304,435 L541.999,435 L542,429 Z" fill="#EE6B47" fill-rule="nonzero"></path>
            <text id="Origin" font-family="Helvetica" font-size="14" font-weight="normal" line-spacing="18" fill="#8A704D">
                <tspan x="406.327637" y="453">Origin</tspan>
            </text>
            <text id="Main-HTTP-request" font-family="Helvetica" font-size="14" font-weight="normal" line-spacing="18" fill="#8A704D">
                <tspan x="361.927734" y="428">Main HTTP-request</tspan>
            </text>
            <text id="preflight" font-family="Helvetica" font-size="22" font-weight="normal" fill="#9B9B9B">
                <tspan x="214.366211" y="183">preflight</tspan>
            </text>
            <text id="if-allowed" font-family="Helvetica" font-size="22" font-weight="normal" fill="#9B9B9B">
                <tspan x="201.641602" y="438">if allowed</tspan>
            </text>
            <text id="1" font-family="Helvetica" font-size="24" font-weight="normal" fill="#000000">
                <tspan x="570.326172" y="183">1</tspan>
            </text>
            <text id="2" font-family="Helvetica" font-size="24" font-weight="normal" fill="#000000">
                <tspan x="570.326172" y="299">2</tspan>
            </text>
            <text id="3" font-family="Helvetica" font-size="24" font-weight="normal" fill="#000000">
                <tspan x="570.326172" y="440">3</tspan>
            </text>
            <text id="4" font-family="Helvetica" font-size="24" font-weight="normal" fill="#000000">
                <tspan x="570.326172" y="506">4</tspan>
            </text>
            <text id="Access-Control-Allow" font-family="Helvetica" font-size="14" font-weight="normal" line-spacing="18" fill="#8A704D">
                <tspan x="431.5" y="293"></tspan>
                <tspan x="343.979492" y="311">Access-Control-Allow-Origin</tspan>
                <tspan x="339.303711" y="329">Access-Control-Allow-Method</tspan>
                <tspan x="336.193359" y="347">Access-Control-Allow-Headers</tspan>
                <tspan x="353.700195" y="365">Access-Control-Max-Age</tspan>
            </text>
        </g>
    </g>
</svg>
